X: 35862
T: Sand In The Whistle, The
R: reel
M: 4/4
K: Aminor
|:EG|A2cB AE~E2|ABcB AE~E2|FAcA ^FAcA|GBdB ^Gedc|
A2cB AE~E2|ABcB AE~E2|FAcA GBdB|cBAG A2:|
|:cd|eA~A2 eAfA|eA~A2 cBA^G|GBdB FAcA|EGBA ^Gedc|
eA~A2 eAfA|eA~A2 cBAG|FAcA GBdB|cBAG A2:|

